assets/svg/logo-white.svg

<svg fill="none" height="59" viewBox="0 0 107 59" width="107" xmlns="http://www.w3.org/2000/svg"><g clip-rule="evenodd" fill="#fff" fill-rule="evenodd"><path d="m14.4765 33.8195c-3.8503 0-6.77499 1.888-8.28626 3.7253v-9.4367c0-1.7384-1.36529-3.1785-3.07148-3.1785-1.70536 0-3.11876 1.4401-3.11876 3.1785v27.4649c0 1.7384 1.4134 3.1785 3.11876 3.1785 1.70619 0 3.07148-1.4401 3.07148-3.1785v-13.3091c1.07249-1.4409 2.97361-2.8311 5.36166-2.8311 2.6808 0 4.387 1.0429 4.387 4.371v11.77c0 1.7385 1.4133 3.1786 3.0706 3.1786 1.7543 0 3.1188-1.4401 3.1188-3.1786v-14.2048c0-4.6685-2.4851-7.5495-7.6518-7.5495zm17.1573.2493c-1.7543 0-3.1187 1.4401-3.1187 3.1776v18.3266c0 1.7384 1.3644 3.1785 3.0706 3.1785 1.7054 0 3.1188-1.4401 3.1188-3.1785v-18.3266c0-1.7375-1.4134-3.1776-3.0707-3.1776zm57.7701 10.0815c.2928-2.3849 1.9492-5.3142 5.8004-5.3142 4.0942 0 5.6547 3.029 5.8007 5.3142zm17.5961 1.2913c0-6.2573-4.777-11.6221-11.7957-11.6221-7.1649 0-12.1856 5.6124-12.1856 12.5661 0 7.6975 5.4106 12.6144 12.5754 12.6144 2.7289 0 5.4599-.6457 7.7509-1.9861.73-.447 1.315-1.2423 1.315-2.1854 0-1.3413-1.121-2.4839-2.437-2.4839-.439 0-.828.0998-1.169.2984-1.4627.8442-3.2178 1.3403-4.7781 1.3403-3.9963 0-6.3843-2.532-6.7741-5.5617h13.7942c2.388 0 3.704-.8942 3.704-2.98zm-43.8443-1.2913c.2928-2.3849 1.9492-5.3142 5.8004-5.3142 4.095 0 5.6544 3.029 5.8004 5.3142zm5.8004-10.3308c-7.1648 0-12.1847 5.6124-12.1847 12.5661 0 7.6975 5.4097 12.6144 12.5745 12.6144 2.7298 0 5.4595-.6457 7.7505-1.9861.7316-.447 1.3155-1.2423 1.3155-2.1854 0-1.3413-1.1206-2.4839-2.4369-2.4839-.4388 0-.8287.0998-1.1696.2984-1.4623.8442-3.2166 1.3403-4.7768 1.3403-3.9972 0-6.3852-2.532-6.775-5.5617h13.7939c2.3888 0 3.7043-.8942 3.7043-2.98 0-6.2573-4.7777-11.6221-11.7957-11.6221zm-15.1923.1495c-.5359 0-.9746.1488-1.5594.3973-1.4142.5459-2.8276 1.8871-3.8512 3.3272l.049-.4471c0-1.7874-1.4134-3.1785-3.1686-3.1785-1.7062 0-3.0706 1.441-3.0706 3.2284v18.2767c0 1.7384 1.3644 3.1785 3.1187 3.1785 1.6581 0 3.0715-1.4401 3.0715-3.1785v-13.0124c1.0236-1.5398 3.4605-2.4331 5.0697-2.6317 1.9492-.2992 2.9238-1.5897 2.9238-3.1295 0-1.539-.9257-2.8304-2.5829-2.8304zm-22.6591-33.969c-8.9333 0-16.1745 7.25451-16.1745 16.2042 0 8.9497 7.2412 16.2043 16.1745 16.2043 8.9332 0 16.1744-7.2546 16.1744-16.2043 0-8.94969-7.2412-16.2042-16.1744-16.2042zm0 3.63972c6.9151 0 12.5413 5.63658 12.5413 12.56448 0 6.928-5.6262 12.5645-12.5413 12.5645-6.9152 0-12.5414-5.6365-12.5414-12.5645 0-6.9279 5.6262-12.56448 12.5414-12.56448z"/><path d="m38.7824 16.6197c-.0531 0-.1062-.0016-.1593-.0058-1.0119-.0798-1.7626-.8991-1.6755-1.8282.2107-2.2569-1.5179-4.3602-3.9358-4.78728-.9978-.177-1.6506-1.06366-1.4581-1.97941.1916-.91658 1.1562-1.51738 2.1541-1.34038 4.2418.75038 7.2751 4.43827 6.9052 8.39547-.0821.8808-.8859 1.5456-1.8306 1.5456z"/></g></svg>

<svg width="107" height="59" viewBox="0 0 107 59" fill="none" xmlns="http://www.w3.org/2000/svg">
<path fill-rule="evenodd" clip-rule="evenodd" d="M14.4765 33.8195C10.6262 33.8195 7.70151 35.7075 6.19024 37.5448V28.1081C6.19024 26.3697 4.82495 24.9296 3.11876 24.9296C1.4134 24.9296 0 26.3697 0 28.1081V55.573C0 57.3114 1.4134 58.7515 3.11876 58.7515C4.82495 58.7515 6.19024 57.3114 6.19024 55.573V42.2639C7.26273 40.823 9.16385 39.4328 11.5519 39.4328C14.2327 39.4328 15.9389 40.4757 15.9389 43.8038V55.5738C15.9389 57.3123 17.3522 58.7524 19.0095 58.7524C20.7638 58.7524 22.1283 57.3123 22.1283 55.5738V41.369C22.1283 36.7005 19.6432 33.8195 14.4765 33.8195ZM31.6338 34.0688C29.8795 34.0688 28.5151 35.5089 28.5151 37.2464V55.573C28.5151 57.3114 29.8795 58.7515 31.5857 58.7515C33.2911 58.7515 34.7045 57.3114 34.7045 55.573V37.2464C34.7045 35.5089 33.2911 34.0688 31.6338 34.0688ZM89.4039 44.1503C89.6967 41.7654 91.3531 38.8361 95.2043 38.8361C99.2985 38.8361 100.859 41.8651 101.005 44.1503H89.4039ZM107 45.4416C107 39.1843 102.223 33.8195 95.2043 33.8195C88.0394 33.8195 83.0187 39.4319 83.0187 46.3856C83.0187 54.0831 88.4293 59 95.5941 59C98.323 59 101.054 58.3543 103.345 57.0139C104.075 56.5669 104.66 55.7716 104.66 54.8285C104.66 53.4872 103.539 52.3446 102.223 52.3446C101.784 52.3446 101.395 52.4444 101.054 52.643C99.5913 53.4872 97.8362 53.9833 96.2759 53.9833C92.2796 53.9833 89.8916 51.4513 89.5018 48.4216H103.296C105.684 48.4216 107 47.5274 107 45.4416ZM63.1557 44.1503C63.4485 41.7654 65.1049 38.8361 68.9561 38.8361C73.0511 38.8361 74.6105 41.8651 74.7565 44.1503H63.1557ZM68.9561 33.8195C61.7913 33.8195 56.7714 39.4319 56.7714 46.3856C56.7714 54.0831 62.1811 59 69.3459 59C72.0757 59 74.8054 58.3543 77.0964 57.0139C77.828 56.5669 78.4119 55.7716 78.4119 54.8285C78.4119 53.4872 77.2913 52.3446 75.975 52.3446C75.5362 52.3446 75.1463 52.4444 74.8054 52.643C73.3431 53.4872 71.5888 53.9833 70.0286 53.9833C66.0314 53.9833 63.6434 51.4513 63.2536 48.4216H77.0475C79.4363 48.4216 80.7518 47.5274 80.7518 45.4416C80.7518 39.1843 75.9741 33.8195 68.9561 33.8195ZM53.7638 33.969C53.2279 33.969 52.7892 34.1178 52.2044 34.3663C50.7902 34.9122 49.3768 36.2534 48.3532 37.6935L48.4022 37.2464C48.4022 35.459 46.9888 34.0679 45.2336 34.0679C43.5274 34.0679 42.163 35.5089 42.163 37.2963V55.573C42.163 57.3114 43.5274 58.7515 45.2817 58.7515C46.9398 58.7515 48.3532 57.3114 48.3532 55.573V42.5606C49.3768 41.0208 51.8137 40.1275 53.4229 39.9289C55.3721 39.6297 56.3467 38.3392 56.3467 36.7994C56.3467 35.2604 55.421 33.969 53.7638 33.969ZM31.1047 0C22.1714 0 14.9302 7.25451 14.9302 16.2042C14.9302 25.1539 22.1714 32.4085 31.1047 32.4085C40.0379 32.4085 47.2791 25.1539 47.2791 16.2042C47.2791 7.25451 40.0379 0 31.1047 0ZM31.1047 3.63972C38.0198 3.63972 43.646 9.2763 43.646 16.2042C43.646 23.1322 38.0198 28.7687 31.1047 28.7687C24.1895 28.7687 18.5633 23.1322 18.5633 16.2042C18.5633 9.2763 24.1895 3.63972 31.1047 3.63972Z" fill="white"/>
<path fill-rule="evenodd" clip-rule="evenodd" d="M38.7824 16.6197C38.7293 16.6197 38.6762 16.6181 38.6231 16.6139C37.6112 16.5341 36.8605 15.7148 36.9476 14.7857C37.1583 12.5288 35.4297 10.4255 33.0118 9.99842C32.014 9.82142 31.3612 8.93476 31.5537 8.01901C31.7453 7.10243 32.7099 6.50163 33.7078 6.67863C37.9496 7.42901 40.9829 11.1169 40.613 15.0741C40.5309 15.9549 39.7271 16.6197 38.7824 16.6197Z" fill="white"/>
</svg>
